src/assets/media/svg/sprite/clear.svg

<svg width="24" height="24" viewBox="0 0 24 24" fill="none" xmlns="http://www.w3.org/2000/svg">
<path d="M12 1C5.926 1 1 5.926 1 12C1 18.074 5.926 23 12 23C18.074 23 23 18.074 23 12C23 5.926 18.074 1 12 1ZM17.25 15.75L15.75 17.25L12 13.5L8.25 17.25L6.75 15.75L10.5 12L6.75 8.25L8.25 6.75L12 10.5L15.75 6.75L17.25 8.25L13.5 12L17.25 15.75Z"/>
</svg>

<svg xmlns="http://www.w3.org/2000/svg" width="24" height="24" fill="none"><path d="M12 1C5.926 1 1 5.926 1 12s4.926 11 11 11 11-4.926 11-11S18.074 1 12 1m5.25 14.75-1.5 1.5L12 13.5l-3.75 3.75-1.5-1.5L10.5 12 6.75 8.25l1.5-1.5L12 10.5l3.75-3.75 1.5 1.5L13.5 12z"/></svg>
